!!!OTL: Tochter als Faehnrich Im Ungarland zu Grosswardein,
!!!ARE: Europa, Osteuropa, UdSSR, Karpato - Ukraine
!!!YOR: 5, S. 94
!!    1963 gedruckt in Linz
!!!SCT: Q1096B
!!!YEM: Copyright 1995, estate of Helmut Schaffrath.
**kern
*ICvox
*Ivox
*M3/4
*k[f#]
*G:
{4d
=1
2g
4a
=2
2b
4b
=3
4cc
4b
4a
=4
2g}
{4d
=5
2g
4a
=6
2b
4b
=7
4cc
4b
4a
=8
2g}
{4g
=9
2b
4b
=10
2a
4b
=11
4a
4g
4e
=12
2d}
{4d
=13
2g
4a
=14
4b
4a
4g
=15
2a
4a
=16
2g}
==
!!!AGN: ???
!! Melodievergleich zu Q0096A, anderes Lied.
!!!ONB: ESAC (Essen Associative Code) Database: BALLADE
!!!AMT: simple triple
!!!AIN: vox
!!!EED: Helmut Schaffrath
!!!EEV: 1.0
*-
